X: 165
T: Speed the Plough
M:4/4
L:1/8
Q:160
S:Playford
O:Manuscript
A:English
K:A
ABcd efe^d|efe^d efec|d2 dd c2 cc|Bcdc BGEG|ABcd efe^d|efe^d efec|dece B eAe|EGBG A4:| {g}a2 (3bag a2 c>e|a2 g>f e>cA>c|d2 f>d c2 e>c|B>cd>c B>g E2|A>ce>g A>e c2| f>ed>f e>c A2|bece BeAe| E2 G2 A2:|

